svgs/thin/folder-user.svg

<svg xmlns="http://www.w3.org/2000/svg" viewBox="0 0 512 512"><!-- Font Awesome Pro 6.0.0-alpha2 by @fontawesome - https://fontawesome.com License - https://fontawesome.com/license (Commercial License) --><path d="M464 96H272L217.373 41.375C211.371 35.371 203.232 32 194.746 32H48C21.49 32 0 53.492 0 80V432C0 458.508 21.49 480 48 480H464C490.51 480 512 458.508 512 432V144C512 117.492 490.51 96 464 96ZM496 432C496 449.672 481.674 464 464 464H48C30.326 464 16 449.672 16 432V80C16 62.328 30.326 48 48 48H188.117C196.604 48 204.742 51.371 210.744 57.371L265.371 112H464C481.674 112 496 126.328 496 144V432ZM256 288C291.348 288 320 259.344 320 224S291.348 160 256 160C220.656 160 192 188.656 192 224S220.656 288 256 288ZM256 176C282.469 176 304 197.531 304 224S282.469 272 256 272S208 250.469 208 224S229.531 176 256 176ZM288 320H224C179.82 320 144 355.816 144 400C144 408.836 151.164 416 160 416H352C360.836 416 368 408.836 368 400C368 355.816 332.184 320 288 320ZM160 400C160 364.711 188.711 336 224 336H288C323.289 336 352 364.711 352 400H160Z"/></svg>

<svg xmlns="http://www.w3.org/2000/svg" viewBox="0 0 512 512"><!--! Font Awesome Pro 6.3.0 by @fontawesome - https://fontawesome.com License - https://fontawesome.com/license (Commercial License) Copyright 2023 Fonticons, Inc. --><path d="M464 96h-192L217.4 41.38C211.4 35.37 203.2 32 194.7 32H48C21.49 32 0 53.49 0 80v352C0 458.5 21.49 480 48 480h416c26.51 0 48-21.49 48-48v-288C512 117.5 490.5 96 464 96zM496 432c0 17.67-14.33 32-32 32h-416c-17.67 0-32-14.33-32-32v-352c0-17.67 14.33-32 32-32h140.1c8.486 0 16.62 3.371 22.63 9.371L265.4 112H464c17.67 0 32 14.33 32 32V432zM256 288c35.35 0 64-28.66 64-64s-28.65-64-64-64C220.7 160 192 188.7 192 224S220.7 288 256 288zM256 176c26.47 0 48 21.53 48 48S282.5 272 256 272S208 250.5 208 224S229.5 176 256 176zM288 320H224c-44.18 0-80 35.82-80 80C144 408.8 151.2 416 160 416h192c8.836 0 16-7.164 16-16C368 355.8 332.2 320 288 320zM160 400c0-35.29 28.71-64 64-64h64c35.29 0 64 28.71 64 64H160z"/></svg>
